X:1
T:howl's moving castle
C:howl's moving castle
%%score { 1 | 2 }
L:1/8
M:3/4
K:Bb
V:1 treble nm="ピアノ" snm="Pno."
V:2 treble 
V:1
 !3!d!4!e de de | !2!c!4!d !3!c!4!d cd | !2!B!4!c !3!B!4!c Bc | !2!A!1!G !3!^F4- | F6 | %5
 !1!!3![A,D]6 | !1!D2 !2!G2 !3!B2 | !5!d4 d2 | c2 B2 A2 | B6 | !1!G2 !2!B2 !3!d2 | !5!g4 g2 | %12
 g2 f2 e2 | f6 | !1!A2 d2 f2 | !5!a4 g2 | f4 =e2 | !5!g4 f2 | =e4 d2 | !1!c2 !2!B2 !3!c2 | %20
 !4!d2 c2 G2 | !2!A6 | D2 G2 B2 | d4 d2 | c2 B2 A2 | B6 | G2 B2 d2 | g4 g2 | g2 f2 e2 | f6 | %30
 A2 d2 f2 | a4 g2- | g2 !2!f!1!=e !2!^d!3!e | !5!g4 !4!f2- | f2 !2!=e!1!d !2!^c!3!d | !4!d2 cd cB | %36
 A3 =B ^c2 | d6- | d6 |] %39
V:2
 !2!B6 | !2!A6 | !3!G6 | !5!D6 |[K:bass] !5!D,,2 A,,2 D,2 | !2!^F,6 | z6 | !5!C,2 [E,G,]4 | %8
 !4!D,2 [^F,A,]4 | !4!G,2 [B,D]4 | !5!D,2 !2!!1![G,B,]4 | !5!C,2 !3!!1![E,G,]4 | %12
 !4!F,2 !2!!1![A,C]4 | !4!B,,2 !2!!1![D,F,]4 | !5!F,,2 [D,F,]4 | !4!=E,2 [G,B,]4 | %16
 !5!A,,2 !3![^C,G,]4 | !4!D,2 !2!!1![F,A,]4 | !5!C,2 [F,A,]4 | !4!B,,2 !2!!1![D,F,]4 | %20
 !5!A,,2 !3![C,G,]4 | !5!D,2 !2!!1![G,C]4 | !3!!1![^F,C]6 | !5!C,2 [E,G,]4 | !4!D,2 [^F,A,]4 | %25
 !4!G,2 [B,D]4 | F,2 !3!!1![_A,D]4 | E,2 !3![G,D]4 | !5!F,2 !3!!1![A,E]4 | !5!B,,2 !3!!1![D,A,]4 | %30
 !4!F,2 !2!!1![A,D]4 | =E,2 [B,D]4 | !4!A,2 [^C=E]4 | !4!D,2 !2!!1![F,A,]4 | !5!C,2 [F,A,]4 | %35
 !5!B,,2 [F,A,]4 | !5!A,,2 !3!!1![^C,G,]4 | !5!D,2 !3!^F,2 !2!A,2 | !1!D6 |] %39

